X: 28792
T: My Love Is On The Ocean
R: reel
M: 4/4
K: Amixolydian
gf|:.e.A.A.A BA.B.d|.e.gfd e2dB|.e.A.A.A BABd|d2ed Bdd>d|
.e.A.A.A BABd|(3efg fd e2dB|.g.gge .f.ffe|d2ed Bd.d.d:|
|:fa^ga baga|.g2fd .e2dB|fa^ga baga|.d2ed Bd.d2|
fa^ga baga|g2fd e2dB|g>g (3gfe f>f (3fed|1 d2ed Bd.d.d:|2 d2ed Bdd2||

